public/x2.svg

<svg width="900" height="600" xmlns="http://www.w3.org/2000/svg" version="1.1">

 <g>
  <title>Layer 1</title>
  <path stroke="null" id="svg_1" fill="#29143e" d="m284.3249,600l-111.3249,-200l119.06924,-200l57.11451,-200l550.81625,0l0,200l0,200l0,200l-615.6751,0z"/>
  <path stroke="null" id="svg_2" fill="#3e166e" d="m349.99998,601l110.91795,-200l-16.06398,-200l-19.12378,-200l474.26984,0l0,200l0,200l0,200l-550.00002,0z"/>
  <path id="svg_3" fill="#4f13a3" d="m346,600l-33,-200l153,-200l-178,-200l632,0l0,200l0,200l0,200l-574,0z"/>
  <path stroke="null" id="svg_4" fill="#5f0adb" d="m381,600l83,-200l-50,-200l18,-200l468,0l0,200l0,200l0,200l-519,0z"/>
  <path stroke="null" id="svg_5" fill="#6600ff" d="m499,600l-73,-200l83,-200l43,-200l348,0l0,200l0,200l0,200l-401,0z"/>
  <path id="svg_6" fill="#6600ff" d="m506,600l94,-200l-58,-200l75,-200l283,0l0,200l0,200l0,200l-394,0z"/>
  <path id="svg_7" fill="#5f0adb" d="m657,600l-5,-200l10,-200l20,-200l218,0l0,200l0,200l0,200l-243,0z"/>
  <path id="svg_8" fill="#4f13a3" d="m727,600l-55,-200l-45,-200l91,-200l182,0l0,200l0,200l0,200l-173,0z"/>
  <path id="svg_9" fill="#3e166e" d="m751,600l-16,-200l15,-200l-35,-200l185,0l0,200l0,200l0,200l-149,0z"/>
  <path id="svg_10" fill="#29143e" d="m813,600l16,-200l37,-200l-91,-200l125,0l0,200l0,200l0,200l-87,0z"/>
 </g>
</svg>

<svg id="visual" viewBox="0 0 900 600" width="900" height="600" xmlns="http://www.w3.org/2000/svg" xmlns:xlink="http://www.w3.org/1999/xlink" version="1.1"><path d="M264 600L149 400L272 200L331 0L900 0L900 200L900 400L900 600Z" fill="#29143e"></path><path d="M181 600L326 400L305 200L280 0L900 0L900 200L900 400L900 600Z" fill="#3e166e"></path><path d="M326 600L293 400L446 200L268 0L900 0L900 200L900 400L900 600Z" fill="#4f13a3"></path><path d="M381 600L464 400L414 200L432 0L900 0L900 200L900 400L900 600Z" fill="#5f0adb"></path><path d="M499 600L426 400L509 200L552 0L900 0L900 200L900 400L900 600Z" fill="#6600ff"></path><path d="M506 600L600 400L542 200L617 0L900 0L900 200L900 400L900 600Z" fill="#6600ff"></path><path d="M657 600L652 400L662 200L682 0L900 0L900 200L900 400L900 600Z" fill="#5f0adb"></path><path d="M727 600L672 400L627 200L718 0L900 0L900 200L900 400L900 600Z" fill="#4f13a3"></path><path d="M751 600L735 400L750 200L715 0L900 0L900 200L900 400L900 600Z" fill="#3e166e"></path><path d="M813 600L829 400L866 200L775 0L900 0L900 200L900 400L900 600Z" fill="#29143e"></path></svg>
